icons/mobile/24/svg/folder-add-24.svg

<svg width="24" height="24" viewBox="0 0 24 24" fill="none" xmlns="http://www.w3.org/2000/svg">
<path d="M20 15.0001C20.4832 15.0001 20.875 15.3918 20.875 15.8751V18.1251H23.125C23.6082 18.1251 24 18.5168 24 19.0001C24 19.4833 23.6082 19.8751 23.125 19.8751H20.875V22.1251C20.875 22.6083 20.4832 23.0001 20 23.0001C19.5168 23.0001 19.125 22.6083 19.125 22.1251V19.8751H16.875C16.3918 19.8751 16 19.4833 16 19.0001C16 18.5168 16.3918 18.1251 16.875 18.1251H19.125V15.8751C19.125 15.3918 19.5168 15.0001 20 15.0001Z" fill="black"/>
<path d="M7.6123 2.50201C8.57216 2.50209 9.49088 2.91216 10.1328 3.62604L11.3896 5.02155C13.5706 5.03355 15.7734 5.15492 17.9434 5.38092C19.6861 5.56106 20.9999 7.01498 21 8.76276V13.001H19.25V8.76276C19.2499 7.91387 18.6116 7.20915 17.7637 7.12115C15.5238 6.88818 13.2489 6.76959 11.001 6.76959C10.753 6.76958 10.5166 6.66454 10.3506 6.47955L8.83398 4.79401C8.52204 4.44808 8.07818 4.25013 7.61328 4.25006H4.39258C3.48692 4.2503 2.75023 4.98793 2.75 5.89459V16.2569C2.75 17.1049 3.3893 17.8125 4.2373 17.9005C7.45619 18.2334 10.7351 18.318 14 18.17L13.999 18.1729V19.9239C12.997 19.9679 11.995 20.002 10.999 20.002C8.68502 20.002 6.34869 19.8806 4.05469 19.6426C2.31187 19.4615 0.999023 18.0067 0.999023 16.2598V5.89655C0.999277 4.0239 2.52095 2.50224 4.3916 2.50201H7.6123Z" fill="black"/>
</svg>

<!-- This Source Code Form is subject to the terms of the Mozilla Public
   - License, v. 2.0. If a copy of the MPL was not distributed with this
   - file, You can obtain one at http://mozilla.org/MPL/2.0/. -->
<svg xmlns="http://www.w3.org/2000/svg" width="24" height="24" fill="none" viewBox="0 0 24 24">
    <path fill="#000" d="M20 15c.483 0 .875.392.875.875v2.25h2.25a.875.875 0 1 1 0 1.75h-2.25v2.25a.875.875 0 0 1-1.75 0v-2.25h-2.25a.875.875 0 0 1 0-1.75h2.25v-2.25c0-.483.392-.875.875-.875M7.612 2.502c.96 0 1.879.41 2.52 1.124l1.258 1.396c2.18.012 4.383.133 6.553.359A3.395 3.395 0 0 1 21 8.763V13h-1.75V8.763c0-.85-.638-1.554-1.486-1.642A66 66 0 0 0 11 6.77a.87.87 0 0 1-.65-.29L8.834 4.794a1.65 1.65 0 0 0-1.22-.544H4.392c-.906 0-1.643.738-1.643 1.645v10.362c0 .848.64 1.555 1.487 1.643a66 66 0 0 0 9.763.27l-.001.003v1.75a69 69 0 0 1-3 .079c-2.314 0-4.65-.121-6.944-.36A3.396 3.396 0 0 1 .999 16.26V5.897a3.397 3.397 0 0 1 3.393-3.395z" />
</svg>
